assets/ri/ri-e-bike-2-fill.svg

<svg xmlns="http://www.w3.org/2000/svg" width="100%" height="100%" viewBox="0 0 24 24"><path fill="none" d="M0 0h24v24H0z"/><path d="M16,1 C16.5522847,1 17,1.44771525 17,2 L17,3 L22,3 L22,9 L19.980979,9 L22.7270773,16.5448432 C22.9032836,16.9958219 23,17.4866163 23,18 C23,20.209139 21.209139,22 19,22 C17.1361606,22 15.5700603,20.7252272 15.1260175,19 L10.8739825,19 C10.4299397,20.7252272 8.86383943,22 7,22 C5.05550552,22 3.43507622,20.612512 3.0747418,18.7735658 C2.43596423,18.4396361 2,17.7707305 2,17 L2,7 C2,6.44771525 2.44771525,6 3,6 L10,6 C10.5522847,6 11,6.44771525 11,7 L11,12 C11,12.5522847 11.4477153,13 12,13 L14,13 C14.5522847,13 15,12.5522847 15,12 L15,3 L12,3 L12,1 L16,1 Z M19,16 C17.8954305,16 17,16.8954305 17,18 C17,19.1045695 17.8954305,20 19,20 C20.1045695,20 21,19.1045695 21,18 C21,17.7596672 20.9576092,17.5292353 20.8798967,17.3157736 L20.8635387,17.2724216 C20.5725256,16.5276089 19.8478776,16 19,16 Z M7,16 C5.8954305,16 5,16.8954305 5,18 C5,19.1045695 5.8954305,20 7,20 C8.1045695,20 9,19.1045695 9,18 C9,16.8954305 8.1045695,16 7,16 Z M9,8 L4,8 L4,10 L9,10 L9,8 Z M20,5 L17,5 L17,7 L20,7 L20,5 Z"/></svg>

<svg xmlns="http://www.w3.org/2000/svg" width="100%" height="100%" viewBox="0 0 24 24"><path fill="none" d="M0 0h24v24H0z"/><path d="M16 1a1 1 0 011 1v1h5v6h-2.019l2.746 7.545A4 4 0 1115.126 19h-4.252a4.002 4.002 0 01-7.8-.226A2 2 0 012 17V7a1 1 0 011-1h7a1 1 0 011 1v5a1 1 0 001 1h2a1 1 0 001-1V3h-3V1h4zm3 15a2 2 0 101.88 1.316l-.016-.044A2 2 0 0019 16zM7 16a2 2 0 100 4 2 2 0 000-4zm2-8H4v2h5V8zm11-3h-3v2h3V5z"/></svg>
